components/Common/Svg/svgs/techCrunch.svg

<svg
  width="86"
  height="63"
  viewBox="0 0 86 63"
  fill="none"
  xmlns="http://www.w3.org/2000/svg"
>
  <g opacity="0.5">
    <mask
      id="mask0"
      x="0"
      y="0"
      width="43"
      height="45"
    >
      <path
        fill-rule="evenodd"
        clip-rule="evenodd"
        d="M0 44.0849V0.200684L21.335 0.200684L42.6701 0.200684V44.0849H0Z"
        fill="white"
      ></path>
    </mask>
    <g mask="url(#mask0)">
      <path
        fill-rule="evenodd"
        clip-rule="evenodd"
        d="M42.6684 0.200684V14.8284H28.4221V44.0849H14.1759V14.8284H-0.0703125V0.200684H42.6684"
        fill="#171717"
      ></path>
    </g>
    <path
      fill-rule="evenodd"
      clip-rule="evenodd"
      d="M56.918 14.8284H85.4104V0.200684H56.918V14.8284Z"
      fill="#171717"
    ></path>
    <path
      fill-rule="evenodd"
      clip-rule="evenodd"
      d="M56.9142 29.4558H85.4066V44.0846H42.668V14.8281H56.9142V29.4558Z"
      fill="#171717"
    ></path>
    <mask
      id="mask1"
      x="1"
      y="51"
      width="75"
      height="12"
    >
      <path
        fill-rule="evenodd"
        clip-rule="evenodd"
        d="M75.2784 62.7991H1.66016L1.66016 51.936H75.2784V62.7991Z"
        fill="white"
      ></path>
    </mask>
    <g mask="url(#mask1)">
      <path
        fill-rule="evenodd"
        clip-rule="evenodd"
        d="M7.27244 54.8616V62.7078H4.48059V54.8616H1.66016V52.3647H10.0929V54.8616H7.27244"
        fill="#171717"
      ></path>
      <path
        fill-rule="evenodd"
        clip-rule="evenodd"
        d="M13.1827 56.7524C12.5927 56.7524 12.2623 57.1668 12.1755 57.9345H14.3339C14.2036 57.1516 13.9452 56.7524 13.1827 56.7524ZM16.6066 59.5899H12.1753C12.2622 60.4469 12.7504 60.8307 13.4558 60.8307C14.1177 60.8307 14.6642 60.6828 15.4131 60.2837L16.4054 61.9835C15.4702 62.5446 14.5065 62.8697 13.3266 62.8697C11.0527 62.8697 9.80078 61.2146 9.80078 58.8351C9.80078 56.1622 11.2687 54.7876 13.2546 54.7876C15.3262 54.7876 16.6215 56.1916 16.6215 59.0722C16.6215 59.2941 16.6215 59.4561 16.6066 59.5899V59.5899Z"
        fill="#171717"
      ></path>
      <path
        fill-rule="evenodd"
        clip-rule="evenodd"
        d="M21.4274 62.8697C19.2118 62.8697 17.8867 61.4223 17.8867 58.8069C17.8867 56.4275 19.0677 54.7876 21.4846 54.7876C22.9091 54.7876 23.7299 55.4673 24.3919 56.5602L22.6073 57.95C22.2471 57.2692 22.0025 56.9452 21.4411 56.9452C20.7792 56.9452 20.4488 57.6249 20.4488 58.8504C20.4488 60.0783 20.8078 60.7122 21.5132 60.7122C22.0025 60.7122 22.3477 60.4316 22.8222 59.7073L24.4628 61.0221C23.5859 62.3521 22.765 62.8697 21.4274 62.8697"
        fill="#171717"
      ></path>
      <path
        fill-rule="evenodd"
        clip-rule="evenodd"
        d="M30.2604 62.7075V58.3043C30.2604 57.2995 29.93 57.033 29.3972 57.033C28.8496 57.033 28.5192 57.2995 28.5192 58.2738V62.7075H25.9297V52.9996L28.5192 51.936V55.4671C28.9936 55.0973 29.5264 54.7874 30.4181 54.7874C32.0736 54.7874 32.8659 55.9249 32.8659 57.9639V62.7075H30.2604"
        fill="#171717"
      ></path>
      <path
        fill-rule="evenodd"
        clip-rule="evenodd"
        d="M39.0679 62.8703C36.0748 62.8703 34.4766 60.5942 34.4766 57.5362C34.4766 54.2118 36.3767 52.2021 39.0816 52.2021C41.5568 52.2021 42.5354 53.2962 43.226 55.246L40.6936 56.2661C40.3335 55.3059 39.9882 54.7002 39.0679 54.7002C37.9018 54.7002 37.3987 55.8963 37.3987 57.5362C37.3987 59.1175 37.8881 60.3735 39.0965 60.3735C39.9734 60.3735 40.3484 59.8863 40.8949 58.9109L43.2557 60.1962C42.5789 61.5556 41.4562 62.8703 39.0679 62.8703"
        fill="#171717"
      ></path>
      <path
        fill-rule="evenodd"
        clip-rule="evenodd"
        d="M49.6247 57.8761C49.2943 57.5063 48.9204 57.2257 48.4174 57.2257C47.7829 57.2257 47.3953 57.5356 47.3953 58.4818V62.7077H44.8047V54.9496H47.3953V55.5119C47.8412 55.0682 48.3442 54.7876 49.0073 54.7876C49.5538 54.7876 49.9277 54.9202 50.2306 55.1128L49.6247 57.8761"
        fill="#171717"
      ></path>
      <path
        fill-rule="evenodd"
        clip-rule="evenodd"
        d="M55.785 62.7074V62.1897C55.3242 62.5583 54.7777 62.8694 53.8997 62.8694C52.2454 62.8694 51.4531 61.7319 51.4531 59.6917V54.9492H54.0575V59.3536C54.0575 60.3573 54.389 60.6237 54.9218 60.6237C55.4534 60.6237 55.785 60.3573 55.785 59.3818V54.9492H58.3893V62.7074H55.785"
        fill="#171717"
      ></path>
      <path
        fill-rule="evenodd"
        clip-rule="evenodd"
        d="M64.5896 62.7077V58.3045C64.5896 57.2997 64.2592 57.0332 63.7265 57.0332C63.1789 57.0332 62.8485 57.2997 62.8485 58.274V62.7077H60.2578V54.9496H62.8485V55.4673C63.3229 55.0975 63.8557 54.7876 64.7486 54.7876C66.4029 54.7876 67.1951 55.9251 67.1951 57.9641V62.7077H64.5896"
        fill="#171717"
      ></path>
      <path
        fill-rule="evenodd"
        clip-rule="evenodd"
        d="M72.2427 62.8697C70.027 62.8697 68.7031 61.4223 68.7031 58.8069C68.7031 56.4275 69.883 54.7876 72.2998 54.7876C73.7255 54.7876 74.5452 55.4673 75.2072 56.5602L73.4225 57.95C73.0635 57.2692 72.8177 56.9452 72.2575 56.9452C71.5944 56.9452 71.264 57.6249 71.264 58.8504C71.264 60.0783 71.6242 60.7122 72.3296 60.7122C72.8177 60.7122 73.1641 60.4316 73.6386 59.7073L75.2792 61.0221C74.4012 62.3521 73.5814 62.8697 72.2427 62.8697"
        fill="#171717"
      ></path>
    </g>
    <path
      fill-rule="evenodd"
      clip-rule="evenodd"
      d="M81.0779 62.707V58.3038C81.0779 57.299 80.7464 57.0325 80.2148 57.0325C79.6671 57.0325 79.3356 57.299 79.3356 58.2733V62.707H76.7461V52.9991L79.3356 51.9355V55.4666C79.8112 55.0968 80.3439 54.7869 81.2357 54.7869C82.8911 54.7869 83.6823 55.9244 83.6823 57.9634V62.707H81.0779"
      fill="#171717"
    ></path>
  </g>
</svg>

<svg width="86" height="63" viewBox="0 0 86 63" fill="none" xmlns="http://www.w3.org/2000/svg"><g opacity=".5"><mask id="a" x="0" y="0" width="43" height="45"><path fill-rule="evenodd" clip-rule="evenodd" d="M0 44.085V.2h42.67v43.884H0Z" fill="#fff"/></mask><g mask="url(#a)"><path fill-rule="evenodd" clip-rule="evenodd" d="M42.668.2v14.628H28.422v29.257H14.176V14.828H-.07V.201h42.738" fill="#171717"/></g><path fill-rule="evenodd" clip-rule="evenodd" d="M56.918 14.828H85.41V.201H56.918v14.627ZM56.914 29.456h28.493v14.629H42.668V14.828h14.246v14.628Z" fill="#171717"/><mask id="b" x="1" y="51" width="75" height="12"><path fill-rule="evenodd" clip-rule="evenodd" d="M75.278 62.8H1.66V51.935h73.618v10.863Z" fill="#fff"/></mask><g mask="url(#b)" fill-rule="evenodd" clip-rule="evenodd" fill="#171717"><path d="M7.272 54.862v7.846H4.481v-7.846H1.66v-2.497h8.432v2.497h-2.82M13.183 56.752c-.59 0-.92.415-1.008 1.182h2.159c-.13-.782-.389-1.182-1.151-1.182Zm3.424 2.838h-4.432c.087.857.575 1.24 1.28 1.24.663 0 1.21-.147 1.958-.546l.992 1.7c-.935.56-1.899.886-3.078.886-2.274 0-3.526-1.655-3.526-4.035 0-2.673 1.468-4.047 3.454-4.047 2.071 0 3.367 1.404 3.367 4.284 0 .222 0 .384-.015.518ZM21.427 62.87c-2.215 0-3.54-1.448-3.54-4.063 0-2.38 1.18-4.02 3.598-4.02 1.424 0 2.245.68 2.907 1.773l-1.785 1.39c-.36-.68-.604-1.005-1.166-1.005-.662 0-.992.68-.992 1.905 0 1.228.359 1.862 1.064 1.862.49 0 .835-.28 1.31-1.005l1.64 1.315c-.877 1.33-1.698 1.848-3.036 1.848M30.26 62.708v-4.404c0-1.005-.33-1.271-.863-1.271-.547 0-.878.267-.878 1.24v4.434h-2.59V53l2.59-1.064v3.531c.475-.37 1.007-.68 1.9-.68 1.655 0 2.447 1.138 2.447 3.177v4.744H30.26M39.068 62.87c-2.993 0-4.591-2.276-4.591-5.334 0-3.324 1.9-5.334 4.605-5.334 2.475 0 3.453 1.094 4.144 3.044l-2.532 1.02c-.36-.96-.706-1.566-1.626-1.566-1.166 0-1.67 1.196-1.67 2.836 0 1.581.49 2.837 1.698 2.837.877 0 1.252-.487 1.799-1.462l2.36 1.285c-.676 1.36-1.799 2.674-4.187 2.674M49.625 57.876c-.33-.37-.705-.65-1.208-.65-.634 0-1.022.31-1.022 1.256v4.226h-2.59V54.95h2.59v.562c.446-.444.95-.724 1.612-.724.547 0 .92.132 1.224.325l-.606 2.763M55.785 62.707v-.517c-.46.368-1.007.68-1.885.68-1.655 0-2.447-1.138-2.447-3.178v-4.743h2.604v4.405c0 1.003.332 1.27.865 1.27.531 0 .863-.267.863-1.242v-4.433h2.604v7.758h-2.604M64.59 62.708v-4.404c0-1.004-.33-1.27-.864-1.27-.547 0-.877.266-.877 1.24v4.434h-2.591V54.95h2.59v.517c.475-.37 1.008-.68 1.9-.68 1.655 0 2.447 1.138 2.447 3.177v4.744H64.59M72.243 62.87c-2.216 0-3.54-1.448-3.54-4.063 0-2.38 1.18-4.02 3.597-4.02 1.425 0 2.245.68 2.907 1.773l-1.784 1.39c-.36-.68-.605-1.005-1.166-1.005-.663 0-.993.68-.993 1.905 0 1.228.36 1.862 1.066 1.862.488 0 .834-.28 1.309-1.005l1.64 1.315c-.878 1.33-1.698 1.848-3.036 1.848"/></g><path fill-rule="evenodd" clip-rule="evenodd" d="M81.078 62.707v-4.403c0-1.005-.332-1.272-.863-1.272-.548 0-.88.267-.88 1.241v4.434h-2.589v-9.708l2.59-1.064v3.532c.475-.37 1.008-.68 1.9-.68 1.655 0 2.446 1.137 2.446 3.176v4.744h-2.604" fill="#171717"/></g></svg>
